X:509
T: "Trennung"
N: Z1189
O: Europa, Mitteleuropa, Deutschland, Schwaben
R: Liebes - Lied, Abschieds - Lied
M: 3/4
L: 1/8
K: E
EF | G2G3A | c3BB2 | B3AA2 | A2Gz
GG | G2Fz2F | F2Ez2G | A3DD2 | E2z2

@@@ Tune index: 10267
